icons/svg/box.svg

<svg width="24" height="24" viewBox="0 0 24 24" fill="none" xmlns="http://www.w3.org/2000/svg">
<path d="M7.68652 9.68744L10.3463 11.1134C10.8627 11.3902 11.4314 11.5287 12 11.5287M7.68652 9.68744L3.88403 7.64888M7.68652 9.68744L16.1833 5.13223L16.3111 5.06118M3.88403 7.64888C3.55565 8.18792 3.37305 8.81541 3.37305 9.4698V14.5301C3.37305 15.82 4.08251 17.0053 5.21932 17.6147L10.3463 20.3634C10.8627 20.6402 11.4314 20.7787 12 20.7787M3.88403 7.64888C4.20291 7.12543 4.65925 6.68539 5.21932 6.38513L10.3463 3.63652C11.3792 3.08275 12.6208 3.08275 13.6537 3.63652L16.3111 5.06118M12 11.5287C12.5686 11.5287 13.1372 11.3902 13.6537 11.1134L20.116 7.64888M12 11.5287V11.9999V20.7787M12 20.7787C12.5686 20.7787 13.1372 20.6402 13.6537 20.3634L18.7807 17.6147C19.9175 17.0053 20.6269 15.82 20.6269 14.5301V9.4698C20.6269 8.81541 20.4443 8.18792 20.116 7.64888M20.116 7.64888C19.7971 7.12543 19.3407 6.68539 18.7807 6.38513L16.3111 5.06118" stroke="currentColor" stroke-width="1.5" stroke-linejoin="round"/>
</svg>

<svg xmlns="http://www.w3.org/2000/svg" width="24" height="24" fill="none" viewBox="0 0 24 24"><path stroke="currentColor" stroke-linejoin="round" stroke-width="1.5" d="m7.687 9.687 2.66 1.426A3.5 3.5 0 0 0 12 11.53M7.687 9.687 3.884 7.65m3.803 2.038 8.496-4.555.128-.07M3.884 7.648a3.5 3.5 0 0 0-.51 1.82v5.061a3.5 3.5 0 0 0 1.845 3.085l5.127 2.748A3.5 3.5 0 0 0 12 20.78M3.884 7.649a3.5 3.5 0 0 1 1.335-1.264l5.127-2.748a3.5 3.5 0 0 1 3.308 0L16.31 5.06M12 11.53a3.5 3.5 0 0 0 1.654-.416l6.462-3.464M12 11.529v9.25m0 0a3.5 3.5 0 0 0 1.654-.416l5.127-2.748a3.5 3.5 0 0 0 1.846-3.085V9.47a3.5 3.5 0 0 0-.511-1.821m0 0a3.5 3.5 0 0 0-1.335-1.264l-2.47-1.324"/></svg>
